!!!SOCIAL_FUNCTION:	dream songs
!!!PDT:	1913
!!!OTL: No_94_Song_of_the_Thunderbirds.krn
!!!REG: Great_Lakes
!!!LANG: Non-Tone
!!!LING_GROUP: Algonquin
**kern	**kern
*staff2	*staff1
=1-	=1-
*clefF4	*clefF4
*k[b-e-]	*k[b-e-]
*M3/4	*M3/4
12GG^/	2d\
12r	.
12GG/	.
12GG^/	.
12r	.
12GG/	.
12GG^/	4B-\
12r	.
12GG/	.
=2||	=2||
*M2/4	*M2/4
2r	2d\
=3	=3
2r	8B-\L
.	8d\J
.	12d\L
.	12B-\
.	12G\J
=4||	=4||
*M3/4	*M3/4
2.r	8.G\L
.	16G\Jk
.	4..G\
.	16G\
=5	=5
2.r	2.G\
=6	=6
2.r	8G\L
.	8G\J
.	4G\
.	8G\L
.	8B-\J
=7||	=7||
*M2/4	*M2/4
2r	2B-\
=8	=8
2r	8G\L
.	8B-\J
.	12d\L
.	12B-\
.	12G\J
=9||	=9||
*M3/4	*M3/4
2.r	8.G\L
.	16G\Jk
.	4..G\
.	16G\
=10	=10
2.r	2.G\
=11	=11
2.r	4d\
.	4B-\
.	12d\L
.	12G\
.	12G\J
=12||	=12||
*M2/4	*M2/4
2r	2G\
=13	=13
2r	12E-\L
.	12G\
.	12G\J
.	8E-\L
.	8D\J
=14||	=14||
*M3/4	*M3/4
2.r	8.D\L
.	16D\Jk
.	4.D\
.	8D\
=15	=15
2.r	2.D\
=16	=16
2.r	8G\L
.	8G\J
.	4G\
.	8D\L
.	8E-\J
=17||	=17||
*M2/4	*M2/4
2r	2D\
=18	=18
2r	12BB-\L
.	12D\
.	12D\J
.	8BB-/L
.	8BB-/J
=19||	=19||
*M3/4	*M3/4
2.r	4GG/
.	8BB-/L
.	8BB-/J
.	8BB-/L
.	8AA/J
=20	=20
2.r	8.GG/L
.	16GG/Jk
.	2GG/
==	==
*-	*-
